src/assets/img/exchanges/kraken-logo.svg

<svg viewBox="0 0 122 20" fill="none" xmlns="http://www.w3.org/2000/svg">
<path d="M11.3924 0.0278945C13.5081 -0.120431 15.6645 0.32454 17.5564 1.32044C20.3638 2.76131 22.6016 5.34641 23.6392 8.39768C24.1071 9.75379 24.3512 11.1735 24.3512 12.6143V17.9329C24.3512 18.1448 24.3512 18.3778 24.3105 18.5897C24.1884 19.1195 23.8222 19.6068 23.334 19.8399C22.9882 20.0094 22.6016 20.0306 22.2558 19.967C21.4827 19.8187 20.8724 19.0559 20.8724 18.2295C20.8724 16.5767 20.8724 14.924 20.8724 13.2712C20.8928 12.8051 20.8928 12.2965 20.6487 11.8939C20.2621 11.1311 19.2856 10.7709 18.5329 11.0887C17.8819 11.3218 17.414 12.021 17.3937 12.7415C17.3937 14.4154 17.3937 16.0894 17.3937 17.7634C17.3937 18.0812 17.414 18.399 17.3123 18.6957C17.1496 19.289 16.6817 19.7551 16.1121 19.9247C15.3593 20.1366 14.5049 19.7975 14.1387 19.0771C13.8743 18.6533 13.8946 18.1236 13.915 17.6362C13.915 15.9623 13.915 14.3095 13.915 12.6355C13.8946 11.788 13.2233 11.0252 12.4299 10.9192C11.901 10.8344 11.3517 11.0251 10.9651 11.4066C10.6193 11.7456 10.4362 12.2329 10.4362 12.7203V17.5726C10.4362 17.9752 10.4769 18.399 10.3345 18.7804C10.1107 19.4797 9.43939 19.9882 8.72736 19.967C7.995 20.0094 7.28297 19.4797 7.0592 18.7804C6.93714 18.4202 6.95748 18.06 6.95748 17.6786C6.95748 16.0046 6.95748 14.3307 6.95748 12.6567C6.95748 11.8303 6.32683 11.0675 5.55378 10.9192C4.84175 10.7709 4.0687 11.1311 3.70252 11.8092C3.56011 12.0846 3.47874 12.4025 3.47874 12.7203V18.1659C3.47874 18.6957 3.25496 19.2254 2.86843 19.5644C2.27847 20.0942 1.32233 20.1366 0.712023 19.6492C0.264466 19.3314 0 18.7804 0 18.2083V12.6991C0 10.6226 0.508588 8.546 1.46473 6.70253C2.23779 5.19809 3.31599 3.86316 4.59763 2.80369C6.48958 1.15092 8.91045 0.17622 11.3924 0.0278945Z" fill="#5741D9"/>
<path d="M58.9351 6.40588H56.2905C56.3922 4.47765 56.7787 2.74013 58.4672 1.63828C60.1557 0.557626 62.007 0.303354 63.9396 0.472868C64.9772 0.557625 66.0147 0.790711 66.9708 1.25688C68.6593 2.06207 69.4934 3.43937 69.4934 5.3676C69.4934 8.77908 69.4934 12.1906 69.4934 15.602C69.4934 16.8522 69.7375 17.0853 70.9378 16.9582C71.0599 16.937 71.2023 16.9158 71.3243 16.8946C71.3447 16.9582 71.3447 17.0217 71.3447 17.0641V19.1407C70.3885 19.4797 69.412 19.5856 68.4559 19.3102C67.7439 19.0983 67.2963 18.5686 67.0522 17.8693C66.9301 17.5091 66.8488 17.1277 66.747 16.7251C66.6453 16.8522 66.5639 16.9582 66.4622 17.0641C64.3669 19.2678 61.8849 20.2001 58.9555 19.4161C56.8804 18.8652 55.4564 16.8946 55.3954 14.6485C55.375 13.9281 55.4361 13.2077 55.5988 12.5084C55.9853 10.898 57.0839 9.9233 58.4672 9.26644C59.4437 8.80027 60.5016 8.67313 61.5595 8.52481C62.8004 8.3553 64.021 8.20697 65.262 8.01627C66.096 7.88913 66.5233 7.42297 66.6453 6.55421C66.9098 4.79549 66.1571 3.63008 64.5296 3.2063C63.5531 2.95202 62.5563 2.90965 61.5595 3.10035C60.0947 3.37581 59.281 4.24457 58.9962 5.74901C59.0165 5.96091 58.9758 6.17279 58.9351 6.40588ZM66.7267 9.79617C65.5061 10.4742 64.3262 10.6437 63.1259 10.8345C62.1291 11.004 61.1119 11.1523 60.1354 11.4701C58.8538 11.9151 58.2638 13.0169 58.3859 14.5002C58.4876 15.7292 59.281 16.7251 60.5626 16.937C62.5359 17.276 64.2855 16.7039 65.6688 15.1783C66.0757 14.7333 66.4012 14.0976 66.4826 13.5043C66.6657 12.3177 66.6453 11.1099 66.7267 9.79617ZM104.423 13.356C104.362 13.6526 104.322 13.9069 104.26 14.14C103.121 17.7634 100.802 19.3102 97.9947 19.6492C93.1326 20.2001 90.3455 16.8946 89.6335 13.3772C89.0639 10.5802 89.1452 7.80438 90.3252 5.1769C91.4441 2.69775 93.2343 1.06617 95.8993 0.578815C99.0932 -0.0144862 103.609 1.63828 104.362 6.82966C104.566 8.16459 104.606 9.5419 104.728 10.9404H92.3595C92.4612 12.8474 92.746 14.6273 94.0887 16.0046C94.638 16.5768 95.35 16.8522 96.1231 17.0005C98.6253 17.4667 100.7 16.2165 101.514 13.695C101.595 13.4195 101.718 13.3348 101.982 13.356C102.775 13.356 103.569 13.356 104.423 13.356ZM92.4612 8.48244H101.718C101.616 7.3594 101.433 6.32112 100.924 5.34641C100.436 4.41408 99.7239 3.73603 98.7474 3.397C95.5534 2.25277 92.2578 4.90144 92.4612 8.48244ZM111.076 19.0347H108.268V0.85428H110.933V3.397C111.137 3.16392 111.259 3.01559 111.381 2.86727C113.293 0.600008 115.694 0.00670441 118.42 0.705952C120.311 1.19331 121.369 2.5918 121.736 4.54122C121.878 5.34641 121.98 6.1728 121.98 6.97799C122 10.8768 122 14.7757 122 18.6745C122 18.7804 121.98 18.8864 121.98 19.0135H119.111V18.5262C119.111 14.8816 119.132 11.237 119.091 7.59248C119.091 6.78729 118.969 5.9609 118.745 5.1769C118.379 3.90554 117.402 3.22748 116.121 3.16391C113.781 3.07916 111.93 4.3717 111.36 6.53301C111.157 7.31702 111.096 8.1434 111.096 8.96979C111.076 12.1694 111.076 15.3478 111.076 18.505V19.0347ZM74.0707 0.85428H76.7764V8.56719C76.9391 8.39768 77.0409 8.31292 77.1426 8.20697C79.36 5.85496 81.5775 3.48175 83.7949 1.12974C83.978 0.917845 84.1611 0.833089 84.4459 0.833089C85.4834 0.854279 86.5413 0.833089 87.6805 0.833089C87.5178 1.0026 87.4364 1.10855 87.3347 1.21449C85.3817 3.24867 83.4491 5.30404 81.4757 7.31702C81.252 7.55011 81.252 7.69843 81.3944 7.9527C83.5304 11.4913 85.6462 15.0299 87.7619 18.5686C87.8433 18.6957 87.9043 18.8228 88.006 19.0135C87.8636 19.0347 87.7619 19.0347 87.6398 19.0347C86.6633 19.0347 85.7072 19.0347 84.7307 19.0347C84.4662 19.0347 84.3442 18.9288 84.2018 18.7169C82.5743 15.8775 80.9468 13.0381 79.3193 10.1776C79.238 10.0504 79.1769 9.92331 79.0752 9.77498C78.3225 10.559 77.5901 11.3006 76.8578 12.0846C76.756 12.1906 76.7357 12.3813 76.7357 12.5296C76.7357 14.5214 76.7357 16.5132 76.7357 18.505V19.0135C76.2068 19.0135 75.6778 19.0135 75.1693 19.0135C74.8031 19.0135 74.2945 19.1195 74.091 18.9076C73.908 18.7381 74.0097 18.1871 74.0097 17.8057V1.34163C74.0707 1.23568 74.0707 1.06617 74.0707 0.85428ZM42.8434 0.833089C40.6463 3.10035 38.5103 5.32523 36.3538 7.55011C38.673 11.4066 40.9311 15.1783 43.2299 19.0347C43.0469 19.0347 42.9248 19.0559 42.8027 19.0559C41.8669 19.0559 40.9108 19.0559 39.975 19.0559C39.7105 19.0559 39.5478 18.95 39.4054 18.7169C37.7779 15.8775 36.1504 13.0381 34.5229 10.1776C34.4619 10.0504 34.3805 9.9445 34.2788 9.77498C33.8719 10.22 33.5058 10.7073 33.0582 11.0463C32.1427 11.7668 31.8783 12.6567 31.9393 13.8433C32.041 15.3902 31.9596 16.9582 31.9596 18.505V19.0135H29.2743V0.85428H31.9596V8.44005C32.0207 8.48243 32.0817 8.52481 32.1224 8.56719C32.2038 8.44005 32.2445 8.29173 32.3258 8.18579C34.5229 5.83377 36.7404 3.50294 38.9375 1.12974C39.1409 0.917845 39.324 0.8119 39.6292 0.833089C40.5446 0.854279 41.4601 0.833089 42.3755 0.833089C42.5179 0.833089 42.64 0.833089 42.8434 0.833089ZM48.2141 3.86316C49.5771 1.78661 51.0215 0.0490869 53.7069 0.557631V3.67246C52.9948 3.71484 52.2828 3.69365 51.6115 3.84198C49.9636 4.20219 48.682 5.7702 48.4175 7.67724C48.3769 8.05864 48.3362 8.44006 48.3362 8.82147C48.3362 12.0634 48.3362 15.3054 48.3362 18.5474V19.0559H45.5695V0.896655H48.2141C48.2141 1.85017 48.2141 2.80369 48.2141 3.86316Z" fill="#5741D9"/>
</svg>

<svg viewBox="0 0 122 20" fill="none" xmlns="http://www.w3.org/2000/svg"><path d="M11.392.028a11.56 11.56 0 0 1 6.164 1.292c2.808 1.441 5.046 4.026 6.083 7.078a12.91 12.91 0 0 1 .712 4.216v5.319c0 .212 0 .445-.04.657-.123.53-.489 1.017-.977 1.25a1.74 1.74 0 0 1-1.078.127c-.773-.148-1.384-.911-1.384-1.737V13.27c.02-.466.02-.975-.223-1.377-.387-.763-1.363-1.123-2.116-.805-.651.233-1.119.932-1.14 1.652v5.022c0 .318.021.636-.08.933a1.785 1.785 0 0 1-1.2 1.229c-.754.212-1.608-.128-1.974-.848-.265-.424-.244-.953-.224-1.44v-5.002c-.02-.847-.692-1.61-1.485-1.716a1.721 1.721 0 0 0-1.465.488 1.848 1.848 0 0 0-.529 1.313v4.853c0 .402.04.826-.101 1.207-.224.7-.896 1.208-1.608 1.187-.732.042-1.444-.487-1.668-1.187-.122-.36-.102-.72-.102-1.101v-5.022c0-.827-.63-1.59-1.403-1.738-.712-.148-1.485.212-1.851.89a2.005 2.005 0 0 0-.224.911v5.446c0 .53-.224 1.06-.61 1.398-.59.53-1.547.573-2.157.085C.264 19.331 0 18.78 0 18.21v-5.51c0-2.076.509-4.153 1.465-5.996a12.477 12.477 0 0 1 3.133-3.9A11.417 11.417 0 0 1 11.392.029ZM58.935 6.406H56.29c.102-1.928.489-3.666 2.177-4.768C60.156.558 62.007.303 63.94.473c1.037.085 2.075.318 3.03.784 1.69.805 2.523 2.182 2.523 4.11v10.235c0 1.25.245 1.483 1.445 1.356.122-.021.264-.042.386-.063.02.063.02.127.02.17v2.076c-.956.339-1.932.445-2.888.17-.712-.213-1.16-.742-1.404-1.442-.122-.36-.203-.741-.305-1.144-.102.127-.183.233-.285.34-2.095 2.203-4.577 3.135-7.507 2.351-2.075-.55-3.499-2.521-3.56-4.768-.02-.72.041-1.44.204-2.14.386-1.61 1.485-2.585 2.868-3.242.977-.466 2.035-.593 3.093-.741 1.24-.17 2.461-.318 3.702-.509.834-.127 1.261-.593 1.383-1.462.265-1.759-.488-2.924-2.115-3.348a6.694 6.694 0 0 0-2.97-.106c-1.465.276-2.279 1.145-2.564 2.649.02.212-.02.424-.06.657Zm7.792 3.39c-1.22.678-2.4.848-3.601 1.039-.997.169-2.014.317-2.99.635-1.282.445-1.872 1.547-1.75 3.03.102 1.23.895 2.225 2.177 2.437 1.973.339 3.722-.233 5.106-1.759.407-.445.732-1.08.814-1.674.183-1.186.162-2.394.244-3.708Zm37.696 3.56c-.061.297-.101.55-.163.784-1.139 3.623-3.458 5.17-6.265 5.51-4.862.55-7.65-2.755-8.362-6.273-.57-2.797-.488-5.573.692-8.2 1.12-2.48 2.91-4.11 5.574-4.598 3.194-.593 7.71 1.06 8.463 6.25.204 1.336.244 2.713.366 4.111H92.36c.101 1.907.386 3.687 1.729 5.065.549.572 1.261.847 2.034.995 2.502.467 4.577-.784 5.391-3.305.081-.276.204-.36.468-.339h2.441ZM92.461 8.482h9.257c-.102-1.123-.285-2.16-.794-3.136-.488-.932-1.2-1.61-2.177-1.949-3.194-1.144-6.49 1.504-6.286 5.085Zm18.615 10.553h-2.808V.855h2.665v2.542c.204-.233.326-.381.448-.53C113.293.6 115.694.007 118.42.706c1.891.487 2.949 1.886 3.316 3.835.142.805.244 1.632.244 2.437.02 3.899.02 7.798.02 11.696 0 .106-.02.212-.02.34h-2.869v-.488c0-3.644.021-7.289-.02-10.934 0-.805-.122-1.631-.346-2.415-.366-1.271-1.343-1.95-2.624-2.013-2.34-.085-4.191 1.208-4.761 3.369-.203.784-.264 1.61-.264 2.437-.02 3.2-.02 6.378-.02 9.535v.53ZM74.071.855h2.705v7.712c.163-.17.265-.254.367-.36 2.217-2.352 4.434-4.725 6.652-7.077a.77.77 0 0 1 .65-.297c1.038.021 2.096 0 3.236 0-.163.17-.245.276-.346.381-1.953 2.035-3.886 4.09-5.86 6.103-.223.233-.223.381-.08.636 2.135 3.538 4.251 7.077 6.367 10.616.081.127.142.254.244.445-.142.02-.244.02-.366.02h-2.91c-.264 0-.386-.105-.528-.317-1.628-2.84-3.255-5.679-4.883-8.54-.081-.127-.142-.254-.244-.402-.752.784-1.485 1.526-2.217 2.31-.102.106-.122.296-.122.445v6.484h-1.567c-.366 0-.874.105-1.078-.106-.183-.17-.081-.72-.081-1.102V1.342c.06-.106.06-.276.06-.488ZM42.843.832C40.646 3.1 38.51 5.325 36.353 7.55a3421.4 3421.4 0 0 1 6.877 11.485c-.183 0-.305.02-.427.02h-2.828c-.264 0-.427-.105-.57-.338-1.627-2.84-3.255-5.679-4.882-8.54-.061-.127-.143-.232-.244-.402-.407.445-.773.932-1.22 1.271-.916.72-1.18 1.61-1.12 2.797.102 1.547.02 3.115.02 4.662v.509h-2.685V.854h2.686V8.44c.06.042.122.085.162.127.082-.127.123-.275.204-.381 2.197-2.352 4.414-4.683 6.611-7.056.204-.212.387-.318.692-.297.916.021 1.831 0 2.747 0h.467Zm5.371 3.03C49.577 1.787 51.022.05 53.707.558v3.114c-.712.043-1.424.022-2.096.17-1.647.36-2.929 1.928-3.194 3.835-.04.382-.08.763-.08 1.144V19.056h-2.768V.896h2.645v2.967Z" fill="#5741D9"/></svg>
